X: 1745
T: Setiremin Düğmeleri Çift Sıra
C: (Anonim)
O: Turkey
F: http://compmusic.upf.edu/node/140
N: mahur--turku--aksak--setiremin_dugmeleri--istanbul
N: makam= mahur
N: form= turku
N: usul= aksak = 9/8
M: 9/8
L: 1/16
K: C ^9/8f   
Q: 1/4=168
%%MIDI tuningsystem comma53
a3c' b2a2 g2f2 e4 d2 | ef defg efga fga6  | 
w:  ARANAĞME  |   | 
a3c' b2a2 g2=f2 e2d2 c2 | Bc de=fe dcBc ABG6  | 
w:   |   | 
a3c' b2a2 g2f2 e4 d2 | ef defg efga fga6  | 
w:  ARANAĞME  |   | 
a3c' b2a2 g2=f2 e2d2 c2 | Bc de=fe dcBc ABG3de^9/8f  | 
w:   |   | 
g4 g2g2 g4 g4 fe | d4e2 f2g2 a2g2 =f2e2  | \
w:  *  Se ti re min  a  |  man  düğ me le *  ri   | 
d3c B2c2 d2e2 =f6 | 
w:  çift  *  *  sı ra    | 
=f3ee2 d2d2 {f}edd6  | c3B B2BA A2G2 e2d2 c2 | \
w:  Çek  *  kır_ *  a *  tı *  mı   |  ben  *  gi di *  yo *  rum   | 
B3AA2 AGG4GA Bcde  | 
w:  Mı *  *  sı *  ra   SAZ  | 
=f3e e2d2 d2{f}ed d6 | c3BB2 BAA2 G2e2 d2c2  | \
w:  Çek  *  kır_ *  a *  tı *  mı   |  ben  *  gi di *  yo *  rum   | 
B3A A2AG G4 gfed ef | 
w:  Mı *  sı *  *  ra   SAZ  | 
g4g2 g2g4g4fe  | d4 e2f2 g2a2 g2=f2 e2 | \
w:  *  Bak ma  yâ rim  a  |  man  dün  ge ce *  ki   | 
d3cB2 c2d2 e2=f6  | 
w:  ku *  *  su ra    | 
=f3e e2d2 d2{f}ed d4 d2 | c3BB2 BAA2 G2e2 d2c2  | \
w:  Yan dım_ a man  Ka *  dı *  köy lü   |  pek  *  ya zık  *  ol *  du   | 
B3A A2AG G4 GABc de | 
w:  şâ *  nı *  *  na   SAZ  | 
=f3ee2 d2d2 {f}edd6  | c3B B2BA A2G2 e2d2 c2 | \
w:  Üç  *  beş  *  li *  ra *  ya   |  bir  *  ge ce  *  al *  sam   | 
B3AA2 AGG8-G2  | 
w:  ya *  nı *  *  ma    | 
=f3e e2d2 d2{f}ed d4 d2 | c3BB2 BAA2 G2e2 d2c2  | \
w:  Yan dım_ a man  Ka *  dı *  köy lü   |  pek  *  ya zık  *  ol *  du   | 
B3A A2AG G4 GABc de | 
w:  şâ *  nı *  *  na   SAZ  | 
=f3ee2 d2d2 {f}edd6  | c3B B2BA A2G2 e2d2 c2 | \
w:  Üç  *  beş  *  li *  ra *  ya   |  bir  *  ge ce  *  al *  sam   | 
B3AA2 AGG8-G2  | 
w:  ya *  nı *  *  ma    | 
a3c' b2a2 g2f2 e4 d2 | ef defg efga fga6  | 
w:  ARANAĞME  |   | 
a3c' b2a2 g2=f2 e2d2 c2 | Bc de=fe dcBc ABG6  | 
w:   |   | 
a3c' b2a2 g2f2 e4 d2 | ef defg efga fga6  | 
w:  ARANAĞME  |   | 
a3c' b2a2 g2=f2 e2d2 c2 | Bc de=fe dcBc ABG3de^9/8f  | 
w:   |   | 
g4 g2g2 g4 g4 fe | d4e2 f2g2 a2g2 =f2e2  | \
w:  *  Se ti re min  a  |  man  düğ me le *  ri   | 
d3c B2c2 d2e2 =f6 | 
w:  çift  *  *  sı ra    | 
=f3ee2 d2d2 {f}edd6  | c3B B2BA A2G2 e2d2 c2 | \
w:  Çek  *  kır_ *  a *  tı *  mı   |  ben  *  gi di *  yo *  rum   | 
B3AA2 AGG4GA Bcde  | 
w:  Mı *  *  sı *  ra   SAZ  | 
=f3e e2d2 d2{f}ed d6 | c3BB2 BAA2 G2e2 d2c2  | \
w:  Çek  *  kır_ *  a *  tı *  mı   |  ben  *  gi di *  yo *  rum   | 
B3A A2AG G4 gfed ef | 
w:  Mı *  sı *  *  ra   SAZ  | 
g4g2 g2g4g4fe  | d4 e2f2 g2a2 g2=f2 e2 | \
w:  *  Bak ma  yâ rim  a  |  man  dün  ge ce *  ki   | 
d3cB2 c2d2 e2=f6  | 
w:  ku *  *  su ra    | 
=f3e e2d2 d2{f}ed d4 d2 | c3BB2 BAA2 G2e2 d2c2  | \
w:  Yan dım_ a man  Ka *  dı *  köy lü   |  pek  *  ya zık  *  ol *  du   | 
B3A A2AG G4 GABc de | 
w:  şâ *  nı *  *  na   SAZ  | 
=f3ee2 d2d2 {f}edd6  | c3B B2BA A2G2 e2d2 c2 | \
w:  Üç  *  beş  *  li *  ra *  ya   |  bir  *  ge ce  *  al *  sam   | 
B3AA2 AGG8-G2  | 
w:  ya *  nı *  *  ma    | 
=f3e e2d2 d2{f}ed d4 d2 | c3BB2 BAA2 G2e2 d2c2  | \
w:  Yan dım_ a man  Ka *  dı *  köy lü   |  pek  *  ya zık  *  ol *  du   | 
B3A A2AG G4 GABc de | 
w:  şâ *  nı *  *  na   SAZ  | 
=f3ee2 d2d2 {f}edd6  | c3B B2BA A2G2 e2d2 c2 | \
w:  Üç  *  beş  *  li *  ra *  ya   |  bir  *  ge ce  *  al *  sam   | 
B3AA2 AGG8-G2  | 
w:  ya *  nı *  *  ma    | 
|


